X: 38168
T: Sportsman's, The
R: hornpipe
M: 4/4
K: Adorian
|:c2cA B2BA|GABc dBGB|c2cA B2BA|EAAG A2AB|
c2cA B2BA|GABc dBAG|gfge dBAG|1 EAAG A2AB:|2 EAAG A2A2||
|:ABcd efge|afdf edcB|ABcd efge|afdf e4|
a2af g2ge|c2ce dBGB|c2cA B2BA|1 EAAG A2A2:|2 EAAG A2AB||

